theory/color/light/spectrum/images/Wiens_law.svg

<svg height="600" viewBox="0 0 720 600" width="720" xmlns="http://www.w3.org/2000/svg"><path d="m0 0h720v600h-720z" fill="#fff"/><path d="m114 19.5h536.8v513.3h-536.8z" fill="#e0e0e0"/><g fill="none"><g stroke="#000" stroke-width="2"><path d="m114 532.8h15m521.8 0h-15"/><path d="m114 424.7h15m521.8 0h-15"/><path d="m114 316.7h15m521.8 0h-15"/><path d="m114 208.6h15m521.8 0h-15"/><path d="m114 100.5h15m521.8 0h-15"/><path d="m114 505.8h7.5m529.3 0h-7.5"/><path d="m114 478.8h7.5m529.3 0h-7.5"/><path d="m114 451.8h7.5m529.3 0h-7.5"/><path d="m114 397.7h7.5m529.3 0h-7.5"/><path d="m114 370.7h7.5m529.3 0h-7.5"/><path d="m114 343.7h7.5m529.3 0h-7.5"/><path d="m114 289.7h7.5m529.3 0h-7.5"/><path d="m114 262.6h7.5m529.3 0h-7.5"/><path d="m114 235.6h7.5m529.3 0h-7.5"/><path d="m114 181.6h7.5m529.3 0h-7.5"/><path d="m114 154.6h7.5m529.3 0h-7.5"/><path d="m114 127.6h7.5m529.3 0h-7.5"/><path d="m114 73.5h7.5m529.3 0h-7.5"/><path d="m114 46.5h7.5m529.3 0h-7.5"/><path d="m114 19.5h7.5m529.3 0h-7.5"/><path d="m114 532.8v-15m0-498.3v15"/><path d="m248.2 532.8v-15m0-498.3v15"/><path d="m382.4 532.8v-15m0-498.3v15"/><path d="m516.6 532.8v-15m0-498.3v15"/><path d="m650.8 532.8v-15m0-498.3v15"/><path d="m140.8 532.8v-7.5m0-505.8v7.5"/><path d="m167.7 532.8v-7.5m0-505.8v7.5"/><path d="m194.5 532.8v-7.5m0-505.8v7.5"/><path d="m221.4 532.8v-7.5m0-505.8v7.5"/><path d="m275 532.8v-7.5m0-505.8v7.5"/><path d="m301.9 532.8v-7.5m0-505.8v7.5"/><path d="m328.7 532.8v-7.5m0-505.8v7.5"/><path d="m355.6 532.8v-7.5m0-505.8v7.5"/><path d="m409.2 532.8v-7.5m0-505.8v7.5"/><path d="m436.1 532.8v-7.5m0-505.8v7.5"/><path d="m462.9 532.8v-7.5m0-505.8v7.5"/><path d="m489.8 532.8v-7.5m0-505.8v7.5"/><path d="m543.4 532.8v-7.5m0-505.8v7.5"/><path d="m570.3 532.8v-7.5m0-505.8v7.5"/><path d="m597.1 532.8v-7.5m0-505.8v7.5"/><path d="m624 532.8v-7.5m0-505.8v7.5"/><path d="m114 19.5h536.8v513.3h-536.8z"/></g><g stroke-width="3" transform="translate(30)"><path d="m89.4 532.8h5.4 5.5 5.4 5.4 5.4 5.5 5.4 5.4 5.4 5.4l5.5-.1 5.4-.2 5.4-.4 5.4-.7 5.5-.9 5.4-1.3 5.4-1.6 5.4-2 5.4-2.4 5.5-2.5 5.4-2.9 5.4-2.9 5.4-3 5.5-3.1 5.4-2.9 5.4-2.9 5.4-2.7 5.4-2.6 5.5-2.3 5.4-2.1 5.4-1.9 5.4-1.7 5.5-1.4 5.4-1.2 5.4-1 5.4-.7 5.4-.6 5.5-.4 5.4-.2 5.4-.1 5.4.1 5.5.2 5.4.3 5.4.4 5.4.5 5.4.5 5.5.7 5.4.7 5.4.7 5.4.8 5.5.8 5.4.9 5.4.8 5.4.9 5.4.9 5.5.9 5.4.9 5.4.9 5.4.9 5.5.9 5.4.9 5.4.8 5.4.9 5.4.8 5.5.9 5.4.8 5.4.8 5.4.8 5.5.7 5.4.8 5.4.7 5.4.7 5.4.7 5.5.7 5.4.7 5.4.6 5.4.6 5.5.6 5.4.6 5.4.6 5.4.6 5.4.5 5.5.5 5.4.6 5.4.5 5.4.4 5.5.5 5.4.5 5.4.4 5.4.4 5.4.4 5.5.4 5.4.4 5.4.4 5.4.4 5.5.3 5.4.4 5.4.3h.01" stroke="#900"/><path d="m89.4 532.8h5.4 5.5 5.4 5.4 5.4 5.5 5.4 5.4l5.4-.1 5.4-.4 5.5-.7 5.4-1.2 5.4-2.1 5.4-2.9 5.5-3.8 5.4-4.8 5.4-5.5 5.4-6.1 5.4-6.5 5.5-6.7 5.4-6.7 5.4-6.6 5.4-6.3 5.5-5.9 5.4-5.4 5.4-4.8 5.4-4.3 5.4-3.6 5.5-3.1 5.4-2.5 5.4-1.9 5.4-1.4 5.5-1 5.4-.5 5.4-.2 5.4.3 5.4.5 5.5.8 5.4 1 5.4 1.3 5.4 1.4 5.5 1.5 5.4 1.7 5.4 1.8 5.4 1.9 5.4 1.9 5.5 1.9 5.4 2 5.4 2 5.4 2 5.5 2 5.4 2 5.4 2 5.4 1.9 5.4 1.9 5.5 1.9 5.4 1.8 5.4 1.8 5.4 1.8 5.5 1.7 5.4 1.7 5.4 1.6 5.4 1.6 5.4 1.6 5.5 1.5 5.4 1.4 5.4 1.4 5.4 1.4 5.5 1.3 5.4 1.3 5.4 1.2 5.4 1.2 5.4 1.2 5.5 1.1 5.4 1.1 5.4 1.1 5.4 1 5.5.9 5.4 1 5.4.9 5.4.9 5.4.8 5.5.8 5.4.8 5.4.8 5.4.7 5.5.8 5.4.6 5.4.7 5.4.7 5.4.6 5.5.6 5.4.6 5.4.5 5.4.6 5.5.5 5.4.5 5.4.5h.01" stroke="#f00"/><path d="m89.4 532.8h5.4 5.5 5.4 5.4 5.4 5.5l5.4-.1 5.4-.2 5.4-.8 5.4-1.7 5.5-3.2 5.4-5.1 5.4-7.2 5.4-9.3 5.5-11.1 5.4-12.4 5.4-13.3 5.4-13.7 5.4-13.6 5.5-13 5.4-12.2 5.4-11.1 5.4-9.9 5.5-8.5 5.4-7.2 5.4-5.8 5.4-4.6 5.4-3.3 5.5-2.3 5.4-1.2 5.4-.3 5.4.5 5.5 1.1 5.4 1.8 5.4 2.3 5.4 2.7 5.4 3.1 5.5 3.4 5.4 3.6 5.4 3.7 5.4 3.9 5.5 4 5.4 4 5.4 4.1 5.4 4.1 5.4 4 5.5 4 5.4 3.9 5.4 3.9 5.4 3.8 5.5 3.7 5.4 3.6 5.4 3.5 5.4 3.4 5.4 3.4 5.5 3.2 5.4 3.1 5.4 3 5.4 2.9 5.5 2.8 5.4 2.7 5.4 2.6 5.4 2.5 5.4 2.5 5.5 2.3 5.4 2.2 5.4 2.2 5.4 2.1 5.5 2 5.4 1.9 5.4 1.9 5.4 1.8 5.4 1.7 5.5 1.6 5.4 1.6 5.4 1.5 5.4 1.5 5.5 1.4 5.4 1.3 5.4 1.3 5.4 1.3 5.4 1.2 5.5 1.2 5.4 1.1 5.4 1 5.4 1.1 5.5 1 5.4.9 5.4.9 5.4.9 5.4.9 5.5.8 5.4.8 5.4.8 5.4.7 5.5.7 5.4.7 5.4.6h.01" stroke="#f60"/><path d="m89.4 532.8h5.4 5.5 5.4 5.4 5.4l5.5-.1 5.4-.4 5.4-1.3 5.4-3.4 5.4-6.6 5.5-10.7 5.4-15.1 5.4-19.2 5.4-22.5 5.5-24.7 5.4-25.7 5.4-25.5 5.4-24.5 5.4-22.6 5.5-20.3 5.4-17.6 5.4-14.8 5.4-12 5.5-9.2 5.4-6.7 5.4-4.3 5.4-2.2 5.4-.3 5.5 1.3 5.4 2.6 5.4 3.9 5.4 4.8 5.5 5.6 5.4 6.3 5.4 6.7 5.4 7.1 5.4 7.4 5.5 7.5 5.4 7.6 5.4 7.7 5.4 7.6 5.5 7.5 5.4 7.4 5.4 7.3 5.4 7.1 5.4 7 5.5 6.7 5.4 6.6 5.4 6.3 5.4 6.1 5.5 6 5.4 5.6 5.4 5.5 5.4 5.3 5.4 5.1 5.5 4.8 5.4 4.7 5.4 4.5 5.4 4.3 5.5 4.1 5.4 3.9 5.4 3.8 5.4 3.6 5.4 3.5 5.5 3.3 5.4 3.2 5.4 3 5.4 2.9 5.5 2.8 5.4 2.7 5.4 2.5 5.4 2.5 5.4 2.3 5.5 2.2 5.4 2.2 5.4 2 5.4 2 5.5 1.9 5.4 1.8 5.4 1.7 5.4 1.7 5.4 1.6 5.5 1.5 5.4 1.5 5.4 1.4 5.4 1.4 5.5 1.3 5.4 1.2 5.4 1.2 5.4 1.2 5.4 1.1 5.5 1 5.4 1 5.4 1 5.4 1 5.5.9 5.4.8 5.4.9h.01" stroke="#fc0"/><path d="m89.4 532.8h5.4 5.5 5.4 5.4 5.4l5.5-.4 5.4-1.9 5.4-5.4 5.4-11.4 5.4-19.3 5.5-27.9 5.4-35.6 5.4-41.4 5.4-44.8 5.5-45.5 5.4-44.2 5.4-41 5.4-36.6 5.4-31.4 5.5-26 5.4-20.5 5.4-15.1 5.4-10.4 5.5-5.9 5.4-2 5.4 1.3 5.4 4.2 5.4 6.5 5.5 8.5 5.4 10 5.4 11.2 5.4 12.1 5.5 12.7 5.4 13.2 5.4 13.5 5.4 13.5 5.4 13.5 5.5 13.4 5.4 13.1 5.4 12.9 5.4 12.6 5.5 12.2 5.4 11.9 5.4 11.4 5.4 11 5.4 10.6 5.5 10.2 5.4 9.8 5.4 9.3 5.4 9 5.5 8.5 5.4 8.2 5.4 7.8 5.4 7.5 5.4 7.1 5.5 6.8 5.4 6.5 5.4 6.2 5.4 5.8 5.5 5.7 5.4 5.3 5.4 5.1 5.4 4.9 5.4 4.6 5.5 4.4 5.4 4.2 5.4 4 5.4 3.9 5.5 3.6 5.4 3.5 5.4 3.3 5.4 3.2 5.4 3 5.5 2.9 5.4 2.8 5.4 2.6 5.4 2.5 5.5 2.4 5.4 2.3 5.4 2.2 5.4 2.2 5.4 2 5.5 1.9 5.4 1.8 5.4 1.8 5.4 1.7 5.5 1.6 5.4 1.6 5.4 1.5 5.4 1.4 5.4 1.4 5.5 1.3 5.4 1.3 5.4 1.2 5.4 1.1 5.5 1.2 5.4 1 5.4 1.1h.01" stroke="#0c0"/></g><path d="m114 19.5h536.8v513.3h-536.8z" stroke="#000" stroke-width="3"/></g><g font-family="Arial" font-size="14pt"><g text-anchor="end"><text transform="translate(104.3 538)">0</text><text transform="translate(104.3 429.9)">2E+11</text><text transform="translate(104.3 321.9)">4E+11</text><text transform="translate(104.3 213.8)">6E+11</text><text transform="translate(104.3 105.7)">8E+11</text></g><g text-anchor="middle"><g><text transform="translate(114 559)">0</text><text transform="translate(248.2 559)">500</text><text transform="translate(382.4 559)">1000</text><text transform="translate(516.6 559)">1500</text><text transform="translate(650.8 559)">2000</text></g><g><text transform="matrix(0 -1 1 0 30.5 276.2)">Spectral energy density / kJ/m<tspan dy="-5" font-size="10pt">3</tspan> <tspan dy="5">nm</tspan></text><text transform="translate(382.4 590.5)">Wavelength / nm</text></g></g></g><g font-family="Arial" font-size="14pt" text-anchor="middle"><text x="336.3" y="479.1">3500K</text><text x="309.2" y="432.8">4000K</text><text x="287.5" y="356.7">4500K</text><text x="271.2" y="238.1">5000K</text><text x="260.4" y="62.4">5500K</text></g></svg>

﻿<?xml version="1.0" encoding="utf-8"  standalone="no"?>
<!DOCTYPE svg PUBLIC "-//W3C//DTD SVG 1.1//EN" 
 "http://www.w3.org/Graphics/SVG/1.1/DTD/svg11.dtd">
<svg xmlns="http://www.w3.org/2000/svg"
		xmlns:rdf="http://www.w3.org/1999/02/22-rdf-syntax-ns#"
		xmlns:dc="http://purl.org/dc/elements/1.1/"
	width="720" height="600" viewBox="0 0 720 600">

	<metadata>
		<rdf:RDF>
			<rdf:Description about="Wiens_law.svg">
				<dc:title>Spectral energy density</dc:title>
				<dc:format>image/svg+xml</dc:format>
			</rdf:Description>
		</rdf:RDF>
	</metadata>

	<title>Spectral energy density</title>

	<rect x="0" y="0" width="720" height="600" fill="#FFFFFF"/>

	<rect x="114.0" y="19.5" width="536.8" height="513.3" fill="#E0E0E0"/>

	<g style="fill:none; stroke:black; stroke-width:2; stroke-linecap:butt; stroke-linejoin:miter">
		<path d='M114.0,532.8 h15.0 m521.8,0 h-15'/>
		<path d='M114.0,424.7 h15.0 m521.8,0 h-15'/>
		<path d='M114.0,316.7 h15.0 m521.8,0 h-15'/>
		<path d='M114.0,208.6 h15.0 m521.8,0 h-15'/>
		<path d='M114.0,100.5 h15.0 m521.8,0 h-15'/>

		<path d='M114.0,505.8 h7.5 m529.3,0 h-7.5'/>
		<path d='M114.0,478.8 h7.5 m529.3,0 h-7.5'/>
		<path d='M114.0,451.8 h7.5 m529.3,0 h-7.5'/>
		<path d='M114.0,397.7 h7.5 m529.3,0 h-7.5'/>
		<path d='M114.0,370.7 h7.5 m529.3,0 h-7.5'/>
		<path d='M114.0,343.7 h7.5 m529.3,0 h-7.5'/>
		<path d='M114.0,289.7 h7.5 m529.3,0 h-7.5'/>
		<path d='M114.0,262.6 h7.5 m529.3,0 h-7.5'/>
		<path d='M114.0,235.6 h7.5 m529.3,0 h-7.5'/>
		<path d='M114.0,181.6 h7.5 m529.3,0 h-7.5'/>
		<path d='M114.0,154.6 h7.5 m529.3,0 h-7.5'/>
		<path d='M114.0,127.6 h7.5 m529.3,0 h-7.5'/>
		<path d='M114.0,73.5 h7.5 m529.3,0 h-7.5'/>
		<path d='M114.0,46.5 h7.5 m529.3,0 h-7.5'/>
		<path d='M114.0,19.5 h7.5 m529.3,0 h-7.5'/>

		<path d='M114.0,532.8 v-15.0 m0,-498.3 v15.0'/>
		<path d='M248.2,532.8 v-15.0 m0,-498.3 v15.0'/>
		<path d='M382.4,532.8 v-15.0 m0,-498.3 v15.0'/>
		<path d='M516.6,532.8 v-15.0 m0,-498.3 v15.0'/>
		<path d='M650.8,532.8 v-15.0 m0,-498.3 v15.0'/>

		<path d='M140.8,532.8 v-7.5 m0,-505.8 v7.5'/>
		<path d='M167.7,532.8 v-7.5 m0,-505.8 v7.5'/>
		<path d='M194.5,532.8 v-7.5 m0,-505.8 v7.5'/>
		<path d='M221.4,532.8 v-7.5 m0,-505.8 v7.5'/>
		<path d='M275.0,532.8 v-7.5 m0,-505.8 v7.5'/>
		<path d='M301.9,532.8 v-7.5 m0,-505.8 v7.5'/>
		<path d='M328.7,532.8 v-7.5 m0,-505.8 v7.5'/>
		<path d='M355.6,532.8 v-7.5 m0,-505.8 v7.5'/>
		<path d='M409.2,532.8 v-7.5 m0,-505.8 v7.5'/>
		<path d='M436.1,532.8 v-7.5 m0,-505.8 v7.5'/>
		<path d='M462.9,532.8 v-7.5 m0,-505.8 v7.5'/>
		<path d='M489.8,532.8 v-7.5 m0,-505.8 v7.5'/>
		<path d='M543.4,532.8 v-7.5 m0,-505.8 v7.5'/>
		<path d='M570.3,532.8 v-7.5 m0,-505.8 v7.5'/>
		<path d='M597.1,532.8 v-7.5 m0,-505.8 v7.5'/>
		<path d='M624.0,532.8 v-7.5 m0,-505.8 v7.5'/>

		<rect x="114.0" y="19.5" width="536.8" height="513.3"/>
	</g>

<g style="fill:none; stroke-width:3; stroke-linecap:butt; stroke-linejoin:miter"
	transform="translate(30,0)">

	<path id='3500K' stroke='#990000' d='
		M89.4,532.8 L94.8,532.8 L100.3,532.8 L105.7,532.8 L111.1,532.8 L116.5,532.8 L122.0,532.8 L127.4,532.8 
		L132.8,532.8 L138.2,532.8 L143.6,532.8 L149.1,532.7 L154.5,532.5 L159.9,532.1 L165.3,531.4 L170.8,530.5 
		L176.2,529.2 L181.6,527.6 L187.0,525.6 L192.4,523.2 L197.9,520.7 L203.3,517.8 L208.7,514.9 L214.1,511.9 
		L219.6,508.8 L225.0,505.9 L230.4,503.0 L235.8,500.3 L241.2,497.7 L246.7,495.4 L252.1,493.3 L257.5,491.4 
		L262.9,489.7 L268.4,488.3 L273.8,487.1 L279.2,486.1 L284.6,485.4 L290.0,484.8 L295.5,484.4 L300.9,484.2 
		L306.3,484.1 L311.7,484.2 L317.2,484.4 L322.6,484.7 L328.0,485.1 L333.4,485.6 L338.8,486.1 L344.3,486.8 
		L349.7,487.5 L355.1,488.2 L360.5,489.0 L366.0,489.8 L371.4,490.7 L376.8,491.5 L382.2,492.4 L387.6,493.3 
		L393.1,494.2 L398.5,495.1 L403.9,496.0 L409.3,496.9 L414.8,497.8 L420.2,498.7 L425.6,499.5 L431.0,500.4 
		L436.4,501.2 L441.9,502.1 L447.3,502.9 L452.7,503.7 L458.1,504.5 L463.6,505.2 L469.0,506.0 L474.4,506.7 
		L479.8,507.4 L485.2,508.1 L490.7,508.8 L496.1,509.5 L501.5,510.1 L506.9,510.7 L512.4,511.3 L517.8,511.9 
		L523.2,512.5 L528.6,513.1 L534.0,513.6 L539.5,514.1 L544.9,514.7 L550.3,515.2 L555.7,515.6 L561.2,516.1 
		L566.6,516.6 L572.0,517.0 L577.4,517.4 L582.8,517.8 L588.3,518.2 L593.7,518.6 L599.1,519.0 L604.5,519.4 
		L610.0,519.7 L615.4,520.1 L620.8,520.4  h0.01'/>

	<path id='4000K' stroke='#FF0000' d='
		M89.4,532.8 L94.8,532.8 L100.3,532.8 L105.7,532.8 L111.1,532.8 L116.5,532.8 L122.0,532.8 L127.4,532.8 
		L132.8,532.8 L138.2,532.7 L143.6,532.3 L149.1,531.6 L154.5,530.4 L159.9,528.3 L165.3,525.4 L170.8,521.6 
		L176.2,516.8 L181.6,511.3 L187.0,505.2 L192.4,498.7 L197.9,492.0 L203.3,485.3 L208.7,478.7 L214.1,472.4 
		L219.6,466.5 L225.0,461.1 L230.4,456.3 L235.8,452.0 L241.2,448.4 L246.7,445.3 L252.1,442.8 L257.5,440.9 
		L262.9,439.5 L268.4,438.5 L273.8,438.0 L279.2,437.8 L284.6,438.1 L290.0,438.6 L295.5,439.4 L300.9,440.4 
		L306.3,441.7 L311.7,443.1 L317.2,444.6 L322.6,446.3 L328.0,448.1 L333.4,450.0 L338.8,451.9 L344.3,453.8 
		L349.7,455.8 L355.1,457.8 L360.5,459.8 L366.0,461.8 L371.4,463.8 L376.8,465.8 L382.2,467.7 L387.6,469.6 
		L393.1,471.5 L398.5,473.3 L403.9,475.1 L409.3,476.9 L414.8,478.6 L420.2,480.3 L425.6,481.9 L431.0,483.5 
		L436.4,485.1 L441.9,486.6 L447.3,488.0 L452.7,489.4 L458.1,490.8 L463.6,492.1 L469.0,493.4 L474.4,494.6 
		L479.8,495.8 L485.2,497.0 L490.7,498.1 L496.1,499.2 L501.5,500.3 L506.9,501.3 L512.4,502.2 L517.8,503.2 
		L523.2,504.1 L528.6,505.0 L534.0,505.8 L539.5,506.6 L544.9,507.4 L550.3,508.2 L555.7,508.9 L561.2,509.7 
		L566.6,510.3 L572.0,511.0 L577.4,511.7 L582.8,512.3 L588.3,512.9 L593.7,513.5 L599.1,514.0 L604.5,514.6 
		L610.0,515.1 L615.4,515.6 L620.8,516.1  h0.01'/>

	<path id='4500K' stroke='#FF6600' d='
		M89.4,532.8 L94.8,532.8 L100.3,532.8 L105.7,532.8 L111.1,532.8 L116.5,532.8 L122.0,532.8 L127.4,532.7 
		L132.8,532.5 L138.2,531.7 L143.6,530.0 L149.1,526.8 L154.5,521.7 L159.9,514.5 L165.3,505.2 L170.8,494.1 
		L176.2,481.7 L181.6,468.4 L187.0,454.7 L192.4,441.1 L197.9,428.1 L203.3,415.9 L208.7,404.8 L214.1,394.9 
		L219.6,386.4 L225.0,379.2 L230.4,373.4 L235.8,368.8 L241.2,365.5 L246.7,363.2 L252.1,362.0 L257.5,361.7 
		L262.9,362.2 L268.4,363.3 L273.8,365.1 L279.2,367.4 L284.6,370.1 L290.0,373.2 L295.5,376.6 L300.9,380.2 
		L306.3,383.9 L311.7,387.8 L317.2,391.8 L322.6,395.8 L328.0,399.9 L333.4,404.0 L338.8,408.0 L344.3,412.0 
		L349.7,415.9 L355.1,419.8 L360.5,423.6 L366.0,427.3 L371.4,430.9 L376.8,434.4 L382.2,437.8 L387.6,441.2 
		L393.1,444.4 L398.5,447.5 L403.9,450.5 L409.3,453.4 L414.8,456.2 L420.2,458.9 L425.6,461.5 L431.0,464.0 
		L436.4,466.5 L441.9,468.8 L447.3,471.0 L452.7,473.2 L458.1,475.3 L463.6,477.3 L469.0,479.2 L474.4,481.1 
		L479.8,482.9 L485.2,484.6 L490.7,486.2 L496.1,487.8 L501.5,489.3 L506.9,490.8 L512.4,492.2 L517.8,493.5 
		L523.2,494.8 L528.6,496.1 L534.0,497.3 L539.5,498.5 L544.9,499.6 L550.3,500.6 L555.7,501.7 L561.2,502.7 
		L566.6,503.6 L572.0,504.5 L577.4,505.4 L582.8,506.3 L588.3,507.1 L593.7,507.9 L599.1,508.7 L604.5,509.4 
		L610.0,510.1 L615.4,510.8 L620.8,511.4  h0.01'/>

	<path id='5000K' stroke='#FFCC00' d='
		M89.4,532.8 L94.8,532.8 L100.3,532.8 L105.7,532.8 L111.1,532.8 L116.5,532.8 L122.0,532.7 L127.4,532.3 
		L132.8,531.0 L138.2,527.6 L143.6,521.0 L149.1,510.3 L154.5,495.2 L159.9,476.0 L165.3,453.5 L170.8,428.8 
		L176.2,403.1 L181.6,377.6 L187.0,353.1 L192.4,330.5 L197.9,310.2 L203.3,292.6 L208.7,277.8 L214.1,265.8 
		L219.6,256.6 L225.0,249.9 L230.4,245.6 L235.8,243.4 L241.2,243.1 L246.7,244.4 L252.1,247.0 L257.5,250.9 
		L262.9,255.7 L268.4,261.3 L273.8,267.6 L279.2,274.3 L284.6,281.4 L290.0,288.8 L295.5,296.3 L300.9,303.9 
		L306.3,311.6 L311.7,319.2 L317.2,326.7 L322.6,334.1 L328.0,341.4 L333.4,348.5 L338.8,355.5 L344.3,362.2 
		L349.7,368.8 L355.1,375.1 L360.5,381.2 L366.0,387.2 L371.4,392.8 L376.8,398.3 L382.2,403.6 L387.6,408.7 
		L393.1,413.5 L398.5,418.2 L403.9,422.7 L409.3,427.0 L414.8,431.1 L420.2,435.0 L425.6,438.8 L431.0,442.4 
		L436.4,445.9 L441.9,449.2 L447.3,452.4 L452.7,455.4 L458.1,458.3 L463.6,461.1 L469.0,463.8 L474.4,466.3 
		L479.8,468.8 L485.2,471.1 L490.7,473.3 L496.1,475.5 L501.5,477.5 L506.9,479.5 L512.4,481.4 L517.8,483.2 
		L523.2,484.9 L528.6,486.6 L534.0,488.2 L539.5,489.7 L544.9,491.2 L550.3,492.6 L555.7,494.0 L561.2,495.3 
		L566.6,496.5 L572.0,497.7 L577.4,498.9 L582.8,500.0 L588.3,501.0 L593.7,502.0 L599.1,503.0 L604.5,504.0 
		L610.0,504.9 L615.4,505.7 L620.8,506.6  h0.01'/>

	<path id='5500K' stroke='#00CC00' d='
		M89.4,532.8 L94.8,532.8 L100.3,532.8 L105.7,532.8 L111.1,532.8 L116.5,532.8 L122.0,532.4 L127.4,530.5 
		L132.8,525.1 L138.2,513.7 L143.6,494.4 L149.1,466.5 L154.5,430.9 L159.9,389.5 L165.3,344.7 L170.8,299.2 
		L176.2,255.0 L181.6,214.0 L187.0,177.4 L192.4,146.0 L197.9,120.0 L203.3,99.5 L208.7,84.4 L214.1,74.0 
		L219.6,68.1 L225.0,66.1 L230.4,67.4 L235.8,71.6 L241.2,78.1 L246.7,86.6 L252.1,96.6 L257.5,107.8 
		L262.9,119.9 L268.4,132.6 L273.8,145.8 L279.2,159.3 L284.6,172.8 L290.0,186.3 L295.5,199.7 L300.9,212.8 
		L306.3,225.7 L311.7,238.3 L317.2,250.5 L322.6,262.4 L328.0,273.8 L333.4,284.8 L338.8,295.4 L344.3,305.6 
		L349.7,315.4 L355.1,324.7 L360.5,333.7 L366.0,342.2 L371.4,350.4 L376.8,358.2 L382.2,365.7 L387.6,372.8 
		L393.1,379.6 L398.5,386.1 L403.9,392.3 L409.3,398.1 L414.8,403.8 L420.2,409.1 L425.6,414.2 L431.0,419.1 
		L436.4,423.7 L441.9,428.1 L447.3,432.3 L452.7,436.3 L458.1,440.2 L463.6,443.8 L469.0,447.3 L474.4,450.6 
		L479.8,453.8 L485.2,456.8 L490.7,459.7 L496.1,462.5 L501.5,465.1 L506.9,467.6 L512.4,470.0 L517.8,472.3 
		L523.2,474.5 L528.6,476.7 L534.0,478.7 L539.5,480.6 L544.9,482.4 L550.3,484.2 L555.7,485.9 L561.2,487.5 
		L566.6,489.1 L572.0,490.6 L577.4,492.0 L582.8,493.4 L588.3,494.7 L593.7,496.0 L599.1,497.2 L604.5,498.3 
		L610.0,499.5 L615.4,500.5 L620.8,501.6  h0.01'/>

</g>

	<rect x="114.0" y="19.5" width="536.8" height="513.3"
		style="fill:none; stroke:black; stroke-width:3; stroke-linecap:butt; stroke-linejoin:miter"/>

	<g style="stroke:none; fill:black; font-family:Arial; font-size:14.00pt">
		<g text-anchor="end">
			<text transform="translate(104.3,538.0)"> 0</text>
			<text transform="translate(104.3,429.9)"> 2E+11</text>
			<text transform="translate(104.3,321.9)"> 4E+11</text>
			<text transform="translate(104.3,213.8)"> 6E+11</text>
			<text transform="translate(104.3,105.7)"> 8E+11</text>
		</g>

		<g text-anchor="middle">
			<text transform="translate(114.0,559.0)"> 0</text>
			<text transform="translate(248.2,559.0)"> 500</text>
			<text transform="translate(382.4,559.0)"> 1000</text>
			<text transform="translate(516.6,559.0)"> 1500</text>
			<text transform="translate(650.8,559.0)"> 2000</text>
		</g>

		<g text-anchor="middle">
			<text transform="translate(30.5,276.2) rotate(270)">Spectral energy density / kJ/m<tspan dy='-5' font-size='10.00pt'>3</tspan> <tspan dy='5'>nm</tspan></text>
			<text transform="translate(382.4,590.5)">Wavelength / nm</text>
		</g>
	</g>

	<g style="stroke:none; fill:black; font-family:Arial; font-size:14.00pt; text-anchor:middle">
		<text x='336.3' y='479.1'>3500K</text>
		<text x='309.2' y='432.8'>4000K</text>
		<text x='287.5' y='356.7'>4500K</text>
		<text x='271.2' y='238.1'>5000K</text>
		<text x='260.4' y='62.4'>5500K</text>
	</g>
</svg>
